X: 41418
T: Twinkle Little Star
R: reel
M: 4/4
K: Amajor
CB,|A,CEF A2 AB|cBce cBAE|FEFA BAGF|E2 EF EDCB,|
A, CEF A2 AB|cBce cBAc|B2 F2 G2 A2|B4B CB,z|
A, CEF A2 AB|cBce cBAE|FEFA BAGF|E2 EF EDCB,|
A, CEF A2 AB|cBce cBAF|EGBd cEBE|A4A EFG|
A2 A2 B2 B2|cBce d4|e4 f3 e|e2 d4 Bc|
dedc BAGA|Bcdc B4|e4 f3 E|e2 c4 cd|efed cdcB|
AGAB c2 E=F|^FEFA BAGF|E2 EF EDCB,|A,CEF A2 AB|
cBce cBAF|EGBd cEBE|A6z2|

